X:318
T:Return to Milltown
T:Glorious Return to Milltown, The
R:reel
H:This is the Donegal version. There is also a rather different Kerry
H:version, "Tap the Barrel", CRE 2 #266, Roche 1 #145. The
H:"Glorious" title is the original one from John Doherty.
Z:id:hn-reel-318
M:C|
K:Ddor
D2AD EDDB, | C2EC FCEC | D2AD EDDB, | CDEG AEGE |
D2AD EDDB, | C2EC FCEC | F2FD E2ED | CDEG AEGE :|
K:Dmix
|: d2de f2ed | (3B^cd ef gfge | d2de f2ed | =cAGE EDD2 |
d2de f2ed | (3B^cd ef gfge | fafd eged | =cAGE EDD2 :|
P:Variations:
K:Ddor
D2A,D DFED | C2~C2 FCEC | DA,~A,2 EDAD | CDEG cGEC |
D2A,D FDA,D | C2G,C ECG,C | F2FD E2ED | CDEG cGEC |
D2ED ADED | C2EC FCEC | DA,~A,2 DFED | CDEG cGEG |
D2ED ADED | C2EC FCEC | F2FD E2ED | CDEG cGEG ||
K:Dmix
|: Adde fded | (3B^cd ef ~g3e | d2de fded | =cAGE ED~D2 | 
Adde fded | (3B^cd ef g2fg | afge dfed | =cAGE EDD2 :| 
P:More variations:
K:Ddor
|: D2AD EDAD | C2EC FCEC | D2AD EDAD | CDEG AEGE |
D2AD EDAD | C2EC FCEC | ~F3D ~E3D | CDEG AEGE :|
K:D
|: ~d3e f2ed | ^cdef g2fe | ~d3e f2ed | ^cAGE EDD2 |
~d3e f2ed | ^cdef g2fe | ~f3d efed | ^cAGE EDD2 :|

